svg/u261d_1f3fc.svg

<svg viewBox="0 0 128 128" xmlns="http://www.w3.org/2000/svg">
  <defs>
    <radialGradient id="h" cx="72.217916" cy="24.246864" gradientTransform="matrix(0.9722 0.2342 -0.3166 1.3142 0 0)" gradientUnits="userSpaceOnUse" r="54.04">
      <stop offset="0" stop-color="#CCA47A"/>
      <stop offset=".5701" stop-color="#E0BB95"/>
      <stop offset="1" stop-color="#CCA47A"/>
    </radialGradient>
    <radialGradient id="g" cx="61.168" cy="83.312" gradientUnits="userSpaceOnUse" r="26.794">
      <stop offset=".4948" stop-color="#CCA47A" stop-opacity=".8"/>
      <stop offset=".9951" stop-color="#CCA47A" stop-opacity="0"/>
    </radialGradient>
    <radialGradient id="f" cx="49.086683" cy="-220.428762" gradientTransform="matrix(0.00506 1.0512 -0.3357 0.002468 0 0)" gradientUnits="userSpaceOnUse" r="23.31">
      <stop offset="0" stop-color="#E0BB95"/>
      <stop offset=".4107" stop-color="#DEB892"/>
      <stop offset=".7432" stop-color="#D6B088"/>
      <stop offset="1" stop-color="#CCA47A"/>
    </radialGradient>
    <radialGradient id="e" cx="55.877154" cy="-93.182141" gradientTransform="matrix(-0.001885 1.0497 -0.3714 -0.000984 0 0)" gradientUnits="userSpaceOnUse" r="18.882">
      <stop offset="0" stop-color="#E0BB95"/>
      <stop offset=".4107" stop-color="#DEB892"/>
      <stop offset=".7432" stop-color="#D6B088"/>
      <stop offset="1" stop-color="#CCA47A"/>
    </radialGradient>
    <radialGradient id="d" cx="50.328957" cy="-150.862724" gradientTransform="matrix(0.009168 1.05 -0.3562 0.004707 0 0)" gradientUnits="userSpaceOnUse" r="23.627">
      <stop offset="0" stop-color="#E0BB95"/>
      <stop offset=".4107" stop-color="#DEB892"/>
      <stop offset=".7432" stop-color="#D6B088"/>
      <stop offset="1" stop-color="#CCA47A"/>
    </radialGradient>
    <radialGradient id="a" cx="62.148" cy="80.2" gradientUnits="userSpaceOnUse" r="39.548">
      <stop offset="0" stop-color="#E0BB95"/>
      <stop offset=".4107" stop-color="#DEB892"/>
      <stop offset=".7432" stop-color="#D6B088"/>
      <stop offset="1" stop-color="#CCA47A"/>
    </radialGradient>
  </defs>
  <path d="M100.24,15.13 C100.24,9.06 97.18,3.78 91.19,3.78 C85.2,3.78 82.22,9.06 82.22,15.13 L82.22,60.1 C82.22,64.2 76.93,67.52 72.83,67.52 L43.16,67.52 C33.15,67.52 24.95,51.11 24.95,61.13 L24.95,83.41 C24.95,105.85 33.53,124.22 63.78,124.22 C94.03,124.22 103.28,104.97 103.28,85.82 C103.28,78.91 100.42,75.1 100.42,71.46 C100.42,67.82 100.24,15.13 100.24,15.13 Z" fill="url(#h)"/>
  <path d="M91.2,6.78 C93.06,6.78 94.48,7.49 95.54,8.95 C96.64,10.46 97.24,12.66 97.24,15.15 C97.24,15.68 97.42,67.88 97.42,71.47 C97.42,73.47 98.02,75.33 98.66,77.29 C99.42,79.64 100.28,82.3 100.28,85.83 C100.28,92.83 98.94,102.75 92.58,110.27 C86.43,117.54 76.74,121.23 63.78,121.23 C50.7,121.23 41.14,117.58 35.36,110.37 C30.44,104.23 27.95,95.17 27.95,83.43 L27.95,62.53 C28.21,62.75 28.46,62.97 28.7,63.17 C32.29,66.28 37.22,70.54 43.16,70.54 L72.85,70.54 C78.58,70.54 85.24,65.99 85.24,60.12 L85.24,15.13 C85.23,13.74 85.52,6.78 91.2,6.78 M91.2,3.78 C85.21,3.78 82.23,9.06 82.23,15.13 L82.23,60.1 C82.23,64.2 76.94,67.52 72.84,67.52 L43.16,67.52 C35.49,67.52 28.88,57.89 26.21,57.89 C25.4,57.89 24.95,58.79 24.95,61.13 L24.95,83.41 C24.95,105.85 33.53,124.22 63.78,124.22 C94.03,124.22 103.28,104.97 103.28,85.82 C103.28,78.91 100.42,75.1 100.42,71.46 C100.42,67.82 100.24,15.13 100.24,15.13 C100.24,9.07 97.18,3.78 91.2,3.78 Z" fill="#BA8F63"/>
  <path d="M91.48,83.31 A30.31 22.74 0 1 1 30.86,83.31 A30.31 22.74 0 1 1 91.48,83.31 Z" fill="url(#g)" opacity="0.4"/>
  <path d="M74.31,82.52 C68.88,82.52 64.48,78.12 64.48,72.69 L64.48,50.29 C64.48,44.86 68.88,41.46 74.31,41.46 C79.74,41.46 83.14,44.86 83.14,50.29 L84.14,72.69 C84.14,78.12 79.74,82.52 74.31,82.52 Z" fill="url(#f)"/>
  <path d="M34.71,83.85 C29.19,83.85 25.72,80.38 25.72,74.86 L25.72,60.79 C25.72,55.27 29.19,51.8 34.71,51.8 C40.23,51.8 43.7,55.27 43.7,60.79 L43.7,74.87 C43.7,80.38 40.22,83.85 34.71,83.85 Z" fill="url(#e)"/>
  <path d="M54.73,83.69 C49.18,83.69 44.67,79.19 44.67,73.63 L44.67,55.18 C44.67,49.63 49.17,45.12 54.73,45.12 C60.28,45.12 63.79,49.62 63.79,55.18 L64.79,73.63 C64.79,79.19 60.29,83.69 54.73,83.69 Z" fill="url(#d)"/>
  <path d="M75.52,86.09 C78.55,86.49 82.51,88.3 83.15,91.67 C83.78,95 80.82,97.44 78.11,98.59 C76.34,99.35 77.87,101.93 79.62,101.18 C83.62,99.47 87.08,95.49 86.04,90.87 C84.96,86.08 79.95,83.67 75.52,83.09 C73.61,82.83 73.63,85.84 75.52,86.09 Z" fill="#BA8F63"/>
  <path d="M74,43.45 C77.77,43.45 81,46.51 81,50.28 L81,72.69 C81,76.46 78.01,79.52 74.24,79.52 C71.06,79.52 68.29,77.27 67.61,74.17 C67.31,72.79 66.1,71.82 64.7,71.82 L64.56,71.82 C63.1,71.89 61.91,73.01 61.74,74.47 C61.32,78.02 58.32,80.69 54.74,80.69 C50.97,80.69 47.88,77.68 47.7,73.91 C47.62,72.31 46.3,71 44.7,71 L44.63,71 C43,71 42,72.48 42,74.1 L42,74.86 C42,78.71 38.85,81.85 35,81.85 C31.15,81.85 28,78.71 28,74.86 L28,60.79 C28,56.94 30.99,53.8 34.85,53.8 C38.58,53.8 41.57,56.57 41.75,60.3 C41.83,61.9 43.08,63 44.67,63 L44.74,63 C46.37,63 48,61.94 48,60.31 L48,55.18 C48,51.29 51,48.12 54.89,48.12 C58.13,48.12 60.86,50.32 61.64,53.46 C61.98,54.81 63.15,55.73 64.51,55.73 C64.63,55.73 64.5,55.72 64.62,55.71 C66.12,55.52 66.99,54.25 66.99,52.73 L66.99,50.28 C67,46.51 70.23,43.45 74,43.45 M74.24,40 L74.04,40 C68.6,40 64,44.85 64,50.28 L64,52.73 C63,48.36 59.36,45.12 54.66,45.12 C49.11,45.12 45,49.62 45,55.18 L45,60.31 C44,55.01 40.37,50.79 35.01,50.79 C29.49,50.8 25,55.27 25,60.79 L25,74.87 C25,80.39 29.48,84.86 35,84.86 C40.52,84.86 45,80.39 45,74.87 L45,74.1 C45,79.43 49.49,83.68 54.88,83.68 C60.03,83.68 64.2,80.04 64.79,75.05 C65.76,79.46 69.65,83 74.35,83 L74.26,83 C79.69,83 84,78.12 84,72.69 L84,50.28 C84,44.85 79.67,40 74.24,40 Z" fill="#BA8F63"/>
  <path d="M44.69,76.04 C43.68,75.9 42.34,74.72 42.34,73.69 L41.95,60.92 C41.95,59.9 43.69,57.87 44.71,57.73 C45.94,57.56 47.82,59.46 47.82,60.66 L47.43,73.56 C47.42,74.77 45.92,76.22 44.69,76.04 Z" fill="#BA8F63"/>
  <path d="M64,78.72 C62.9,78.72 62.93,78.06 62.93,76.96 L62.02,54.68 C62.02,53.58 62.9,52.72 64,52.72 C65.1,52.72 66.71,52.92 66.71,54.02 L66.58,76.82 C66.58,77.93 65.1,78.72 64,78.72 Z" fill="#BA8F63"/>
  <path d="M95.084,75.057 C96.69,76.847 97.749,79.026 97.69,81.65 C97.672,82.43 97.657,83.212 97.643,83.99 C97.491,92.232 97.346,100.05 92.96,100.58 C91.635,100.742 90.318,100.787 89.041,100.378 C87.689,98.797 86.319,96.631 85.13,93.91 C83.01,89.06 78.99,87.17 70.79,87.17 C68.51,87.17 65.93,87.32 62.9,87.63 C62.69,87.65 62.47,87.66 62.26,87.66 C58.85,87.66 55.23,85.04 54.01,81.7 C53.21,79.5 53.18,75.98 54.71,73.79 C55.61,72.5 56.96,71.84 58.71,71.84 C61.74,71.84 78.59,69.79 81.09,69.49 C84.379,70.354 90.211,72.316 95.084,75.057 Z" fill="url(#a)"/>
  <path d="M80.99,70.99 C77.35,71.44 61.75,73.32 58.73,73.32 C57.46,73.32 56.58,73.74 55.96,74.63 C54.76,76.34 54.75,79.3 55.43,81.17 C56.45,83.96 59.45,86.15 62.27,86.15 C62.44,86.15 62.6,86.15 62.76,86.13 C65.84,85.82 68.47,85.67 70.8,85.67 C79.58,85.67 84.13,87.88 86.51,93.31 C88.08,96.895 89.917,99.331 91.434,100.696 C88.688,100.742 86.031,99.711 83.76,94.51 C83.087,92.978 82.201,91.684 80.722,90.705 C78.758,89.403 75.745,88.66 70.79,88.66 C69.497,88.66 68.075,88.713 66.504,88.818 C65.424,88.89 64.274,88.987 63.05,89.11 C58.931,89.524 54.317,86.607 52.671,82.389 C52.647,82.326 52.623,82.263 52.6,82.2 C51.02,77.88 52.11,70.32 58.71,70.32 C58.821,70.32 58.952,70.317 59.102,70.311 C63.205,70.156 81.19,67.95 81.19,67.95 C81.19,67.95 81.276,67.968 81.434,68.005 C82.084,68.179 83.971,68.707 86.411,69.567 C90.282,71.079 95.186,73.752 96.988,77.984 C92.317,74.754 85.364,72.169 80.99,70.99 Z" fill="#BA8F63"/>
</svg>

<svg viewBox="0 0 128 128" xmlns="http://www.w3.org/2000/svg" xmlns:xlink="http://www.w3.org/1999/xlink">
  <radialGradient id="h" cx="62.536" cy="48.777" gradientTransform="matrix(.9722 .2342 -.3166 1.3142 17.179 -29.97)" gradientUnits="userSpaceOnUse" r="54.04">
    <stop offset="0" stop-color="#CCA47A"/>
    <stop offset=".5701" stop-color="#E0BB95"/>
    <stop offset="1" stop-color="#CCA47A"/>
  </radialGradient>
  <path d="m100.24 15.13c0-6.07-3.06-11.35-9.05-11.35s-8.97 5.28-8.97 11.35v44.97c0 4.1-5.29 7.42-9.39 7.42h-29.67c-10.01 0-18.21-16.41-18.21-6.39v22.28c0 22.44 8.58 40.81 38.83 40.81s39.5-19.25 39.5-38.4c0-6.91-2.86-10.72-2.86-14.36s-0.18-56.33-0.18-56.33z" fill="url(#h)"/>
  <path d="m91.2 6.78c1.86 0 3.28 0.71 4.34 2.17 1.1 1.51 1.7 3.71 1.7 6.2 0 0.53 0.18 52.73 0.18 56.32 0 2 0.6 3.86 1.24 5.82 0.76 2.35 1.62 5.01 1.62 8.54 0 7-1.34 16.92-7.7 24.44-6.15 7.27-15.84 10.96-28.8 10.96-13.08 0-22.64-3.65-28.42-10.86-4.92-6.14-7.41-15.2-7.41-26.94v-20.9c0.26 0.22 0.51 0.44 0.75 0.64 3.59 3.11 8.52 7.37 14.46 7.37h29.69c5.73 0 12.39-4.55 12.39-10.42v-44.99c-0.01-1.39 0.28-8.35 5.96-8.35m0-3c-5.99 0-8.97 5.28-8.97 11.35v44.97c0 4.1-5.29 7.42-9.39 7.42h-29.68c-7.67 0-14.28-9.63-16.95-9.63-0.81 0-1.26 0.9-1.26 3.24v22.28c0 22.44 8.58 40.81 38.83 40.81s39.5-19.25 39.5-38.4c0-6.91-2.86-10.72-2.86-14.36s-0.18-56.33-0.18-56.33c0-6.06-3.06-11.35-9.04-11.35z" fill="#BA8F63"/>
  <radialGradient id="g" cx="61.168" cy="83.312" gradientUnits="userSpaceOnUse" r="26.794">
    <stop offset=".4948" stop-color="#CCA47A" stop-opacity=".8"/>
    <stop offset=".9951" stop-color="#CCA47A" stop-opacity="0"/>
  </radialGradient>
  <ellipse cx="61.17" cy="83.31" fill="url(#g)" opacity=".4" rx="30.31" ry="22.74"/>
  <radialGradient id="f" cx="-31.419" cy="-60.54" gradientTransform="matrix(.0050598 1.0512 -.3357 .0024678 54.082 84.233)" gradientUnits="userSpaceOnUse" r="23.31">
    <stop offset="0" stop-color="#E0BB95"/>
    <stop offset=".4107" stop-color="#DEB892"/>
    <stop offset=".7432" stop-color="#D6B088"/>
    <stop offset="1" stop-color="#CCA47A"/>
  </radialGradient>
  <path d="m74.31 82.52c-5.43 0-9.83-4.4-9.83-9.83v-22.4c0-5.43 4.4-8.83 9.83-8.83s8.83 3.4 8.83 8.83l1 22.4c0 5.43-4.4 9.83-9.83 9.83z" fill="url(#f)"/>
  <radialGradient id="e" cx="-58.058" cy="-50.221" gradientTransform="matrix(-.001885 1.0497 -.3714 -.00098389 15.741 119.64)" gradientUnits="userSpaceOnUse" r="18.882">
    <stop offset="0" stop-color="#E0BB95"/>
    <stop offset=".4107" stop-color="#DEB892"/>
    <stop offset=".7432" stop-color="#D6B088"/>
    <stop offset="1" stop-color="#CCA47A"/>
  </radialGradient>
  <path d="m34.71 83.85c-5.52 0-8.99-3.47-8.99-8.99v-14.07c0-5.52 3.47-8.99 8.99-8.99s8.99 3.47 8.99 8.99v14.08c0 5.51-3.48 8.98-8.99 8.98z" fill="url(#e)"/>
  <radialGradient id="d" cx="-46.884" cy="-56.613" gradientTransform="matrix(.009168 1.05 -.3562 .0047067 34.463 101.63)" gradientUnits="userSpaceOnUse" r="23.627">
    <stop offset="0" stop-color="#E0BB95"/>
    <stop offset=".4107" stop-color="#DEB892"/>
    <stop offset=".7432" stop-color="#D6B088"/>
    <stop offset="1" stop-color="#CCA47A"/>
  </radialGradient>
  <path d="m54.73 83.69c-5.55 0-10.06-4.5-10.06-10.06v-18.45c0-5.55 4.5-10.06 10.06-10.06 5.55 0 9.06 4.5 9.06 10.06l1 18.45c0 5.56-4.5 10.06-10.06 10.06z" fill="url(#d)"/>
  <path d="m75.52 86.09c3.03 0.4 6.99 2.21 7.63 5.58 0.63 3.33-2.33 5.77-5.04 6.92-1.77 0.76-0.24 3.34 1.51 2.59 4-1.71 7.46-5.69 6.42-10.31-1.08-4.79-6.09-7.2-10.52-7.78-1.91-0.26-1.89 2.75 0 3z" fill="#BA8F63"/>
  <path d="m74 43.45c3.77 0 7 3.06 7 6.83v22.41c0 3.77-2.99 6.83-6.76 6.83-3.18 0-5.95-2.25-6.63-5.35-0.3-1.38-1.51-2.35-2.91-2.35h-0.14c-1.46 0.07-2.65 1.19-2.82 2.65-0.42 3.55-3.42 6.22-7 6.22-3.77 0-6.86-3.01-7.04-6.78-0.08-1.6-1.4-2.91-3-2.91h-0.07c-1.63 0-2.63 1.48-2.63 3.1v0.76c0 3.85-3.15 6.99-7 6.99s-7-3.14-7-6.99v-14.07c0-3.85 2.99-6.99 6.85-6.99 3.73 0 6.72 2.77 6.9 6.5 0.08 1.6 1.33 2.7 2.92 2.7h0.07c1.63 0 3.26-1.06 3.26-2.69v-5.13c0-3.89 3-7.06 6.89-7.06 3.24 0 5.97 2.2 6.75 5.34 0.34 1.35 1.51 2.27 2.87 2.27 0.12 0-0.01-0.01 0.11-0.02 1.5-0.19 2.37-1.46 2.37-2.98v-2.45c0.01-3.77 3.24-6.83 7.01-6.83m0.24-3.45h-0.2c-5.44 0-10.04 4.85-10.04 10.28v2.45c-1-4.37-4.64-7.61-9.34-7.61-5.55 0-9.66 4.5-9.66 10.06v5.13c-1-5.3-4.63-9.52-9.99-9.52-5.52 0.01-10.01 4.48-10.01 10v14.08c0 5.52 4.48 9.99 10 9.99s10-4.47 10-9.99v-0.77c0 5.33 4.49 9.58 9.88 9.58 5.15 0 9.32-3.64 9.91-8.63 0.97 4.41 4.86 7.95 9.56 7.95h-0.09c5.43 0 9.74-4.88 9.74-10.31v-22.41c0-5.43-4.33-10.28-9.76-10.28z" fill="#BA8F63"/>
  <path d="m44.69 76.04c-1.01-0.14-2.35-1.32-2.35-2.35l-0.39-12.77c0-1.02 1.74-3.05 2.76-3.19 1.23-0.17 3.11 1.73 3.11 2.93l-0.39 12.9c-0.01 1.21-1.51 2.66-2.74 2.48z" fill="#BA8F63"/>
  <path d="m64 78.72c-1.1 0-1.07-0.66-1.07-1.76l-0.91-22.28c0-1.1 0.88-1.96 1.98-1.96s2.71 0.2 2.71 1.3l-0.13 22.8c0 1.11-1.48 1.9-2.58 1.9z" fill="#BA8F63"/>
  <defs>
    <path id="c" d="m58.71 70.32c-6.6 0-7.69 7.56-6.11 11.88s6.27 7.33 10.45 6.91c14.99-1.51 18.75 0.94 20.71 5.4 2.69 6.16 5.92 6.47 9.2 6.07 4.8-0.58 4.52-9.89 4.73-18.93 0.23-10.22-16.5-13.7-16.5-13.7s-19.32 2.37-22.48 2.37z"/>
  </defs>
  <clipPath id="b">
    <use xlink:href="#c"/>
  </clipPath>
  <g clip-path="url(#b)">
    <radialGradient id="a" cx="62.148" cy="80.2" gradientUnits="userSpaceOnUse" r="39.548">
      <stop offset="0" stop-color="#E0BB95"/>
      <stop offset=".4107" stop-color="#DEB892"/>
      <stop offset=".7432" stop-color="#D6B088"/>
      <stop offset="1" stop-color="#CCA47A"/>
    </radialGradient>
    <path d="m93.77 103.52c-2.22-0.04-5.91-3.36-8.64-9.61-2.12-4.85-6.14-6.74-14.34-6.74-2.28 0-4.86 0.15-7.89 0.46-0.21 0.02-0.43 0.03-0.64 0.03-3.41 0-7.03-2.62-8.25-5.96-0.8-2.2-0.83-5.72 0.7-7.91 0.9-1.29 2.25-1.95 4-1.95 3.03 0 19.88-2.05 22.38-2.35 6.24 1.64 21.63 7.23 22.27 14.59 0.72 8.3-0.29 14.02-3.02 16.99-1.53 1.66-3.59 2.47-6.31 2.47l-0.26-0.02z" fill="url(#a)"/>
    <path d="m80.99 70.99c6.94 1.87 20.37 7.28 20.88 13.19 0.85 9.8-0.96 14.03-2.63 15.85-1.23 1.34-2.93 1.99-5.2 1.99h-0.23c-1.42-0.03-4.72-2.82-7.3-8.71-2.38-5.43-6.93-7.64-15.71-7.64-2.33 0-4.96 0.15-8.04 0.46-0.16 0.02-0.32 0.02-0.49 0.02-2.82 0-5.82-2.19-6.84-4.98-0.68-1.87-0.67-4.83 0.53-6.54 0.62-0.89 1.5-1.31 2.77-1.31 3.02 0 18.62-1.88 22.26-2.33m0.2-3.05s-19.32 2.38-22.48 2.38c-6.6 0-7.69 7.56-6.11 11.88 1.48 4.05 5.69 6.95 9.66 6.95 0.27 0 0.53-0.01 0.79-0.04 3.01-0.3 5.56-0.45 7.74-0.45 8.68 0 11.4 2.28 12.96 5.85 2.69 6.16 6.69 10.45 9.99 10.51h0.29c10.96 0 11.6-12.1 10.82-21.1-0.88-10.17-23.66-15.98-23.66-15.98z" fill="#BA8F63"/>
  </g>
</svg>
